!!!!SEGMENT: pl-kozmzk--mzk-m-346--039_walczynski-franciszek--cantantibus-organis-andante.krn
!!!cenid: 18xx:2834
!!!COM: Walczyński, Franciszek
!!!COM-rismID: pe30021989
!!!CDT: ~1852-1937
!!!CNT: Polish
!!!GTL: Cantantibus organis op. 10
!!!OTL: 39. Andante
!!!PDT: 1898
!!!AGN: Secular
!!!SMS-siglum: PL-KOZmzk
!!!SMS-shelfmark: mzk/m/346
!!!SMS-shelfwork: 039 G
!!!SMS-variant:
!!!SMS-altvar:
!!!NIFC-rismSourceID: 1001109439
!!!NIFC-islandoraID: pl-kozmzk:7453
!!!URL-pdf-islandora: https://repozytorium.nifc.pl/islandora/object/pl-kozmzk%3A7453/datastream/PDF/view
!!!URL-scan: https://polish.musicsources.pl/pl/lokalizacje/galeria/druki-muzyczne/7581 @EN{Scan on Polish Music Sources Website} @PL{Skany w portalu Dziedzictwo Muzyki Polskiej w otwartym dostępie}
!!!ONB-nifc:
!!!AIN: 1 organ
!!!key:
**kern	**kern	**dynam
*part1	*part1	*part1
*staff2	*staff1	*
*Iorgan	*Iorgan	*
*I"Organo	*I"Organo	*
*clefF4	*clefG2	*
*k[b-e-]	*k[b-e-]	*
*B-:	*B-:	*
*M3/4	*M3/4	*
=1	=1	=1
*^	*^	*
!!LO:TX:a:B:t=Andante.
2.r	2.r	2.r	(4f\	p
.	.	.	4d\	.
.	.	.	4B-\	.
=2	=2	=2	=2	=2
!	!	!	!	!LO:HP:a
([2.G/	(2.C\	(2.e-/	(2c\)	<
.	.	.	4B-\	.
=3	=3	=3	=3	=3
!	!	!	!	!LO:HP:a
4G/]	2.D\)	2.d/)	2.A\)	[ >
8F#X/L	.	.	.	]
8E-/J	.	.	.	.
4F#/)	.	.	.	.
=4	=4	=4	=4	=4
(4A/	2.r	2.rdd	2.rg	.
4F#X/	.	.	.	.
4D/	.	.	.	.
=5	=5	=5	=5	=5
!	!	!	!	!LO:DY:a
2.G/	(4.GG\	2.b-/	[2.d\	fp
.	8AA\	.	.	.
.	8BB-\L	.	.	.
.	8C\J	.	.	.
=6	=6	=6	=6	=6
2.F#X/)	2D\	2.a/	2d\]	<
.	4C\)	.	4e-\	[[
=7	=7	=7	=7	=7
!	!	!	!	!LO:DY:a
([2.G/	(2BB-\	(4dd/	2d\	f
.	.	4b-/	.	.
.	4BBn\	4g/	4f\	.
=8	=8	=8	=8	=8
4G/]	2C\	4.ee-/	[2e-\	.
4.c^/	.	.	.	.
.	.	8g/	.	.
.	8F\L	8a/L	8e-\L]	.
8B-/)	8G\J	8b-/J	8d\J	.
=9	=9	=9	=9	=9
(8B-/L	2.F\	4.dd/	[2.f\	.
8A/	.	.	.	.
8G/	.	.	.	.
8A/	.	8cc/L	.	.
8B-/	.	8g/	.	.
8c/J)	.	8a/J)	.	.
=10	=10	=10	=10	=10
!!LO:LB:g=original
(4e-/	2.BB-\)	2.b-;/	2.f\]	.
8d/L	.	.	.	.
8c/J	.	.	.	.
4d;/)	.	.	.	.
=11	=11	=11	=11	=11
2.rF	2.rBB	(4ff/	2.r	pp
.	.	4dd/	.	.
.	.	4b-/	.	.
=12	=12	=12	=12	=12
([2.g/	2.c\	2.ee-/	(2cc\	.
.	.	.	4b-\	.
=13	=13	=13	=13	=13
4g/]	2.d\	2.dd/)	2.a\)	.
8f#X/L	.	.	.	.
8en/J	.	.	.	.
4f#/)	.	.	.	.
=14	=14	=14	=14	=14
(2.g/	(2e-\	(4gg/	[2.b-\	ff
.	.	4ee-/	.	.
.	4en\	4cc/	.	.
=15	=15	=15	=15	=15
2f/	8f\L	2dd/	2b-\]	.
.	8F\	.	.	.
.	8En\	.	.	.
.	8F\J	.	.	.
4e-/	4F#X\	8cc/L	4a\	.
.	.	8dd/J	.	.
=16	=16	=16	=16	=16
2.d/	2G\	4cc/	[2.g\	.
.	.	4b-/	.	.
.	4Fn\	4bn/	.	.
=17	=17	=17	=17	=17
4.c/	4.E-\	4.cc/	2.g\]	.
8Bn/	8D\	8dd/	.	.
4c/)	4C\)	4ee-/)	.	.
=18	=18	=18	=18	=18
(4B-X/	(2.F\	(4dd/	[2.f\	.
8A/L	.	4cc/	.	.
8e-/J	.	.	.	.
8d/L	.	8b-/L	.	.
8B-/J	.	8g/J	.	.
=19	=19	=19	=19	=19
4.c/	2.FF\)	4.a/	2f\_	.
8B-/	.	8b-/	.	.
4A/)	.	4cc/	8f\L]	.
.	.	.	8e-\J	.
=20	=20	=20	=20	=20
!!LO:LB:g=original
(4B-/	[2.BB-\	2.b-/)	2.d\	.
8c/L	.	.	.	.
8B-/	.	.	.	.
8F/	.	.	.	.
8G/J)	.	.	.	.
=21	=21	=21	=21	=21
!	!	!	!	!LO:DY:t=pf
(2.A-X/	2.BB-\_	[2.b-/	4f\	p
.	.	.	4d\	.
.	.	.	4B-\	.
=22	=22	=22	=22	=22
(2.G/)	2.BB-\_	2.b-/]	4f\	.
.	.	.	8e-\L	.
.	.	.	8d\J	.
.	.	.	[4e-\	.
=23	=23	=23	=23	=23
2.G-X/)	2.BB-\_	[2.b-/	4e-\]	.
.	.	.	8f\L	.
.	.	.	8e-\	.
.	.	.	8B-\	.
.	.	.	8c\J	.
=24	=24	=24	=24	=24
(4F/	2.BB-\_	2.b-/_	(4d\	p
4Gn/	.	.	4e-\	.
4E-/	.	.	4c\	.
=25	=25	=25	=25	=25
8F/L	2.BB-\_	2.b-/_	8d\L	.
8G/	.	.	8e-\	.
8F/	.	.	8d\	.
8E-/	.	.	8c\	.
8F/	.	.	8d\	.
8G/J	.	.	8e-\J	.
=26	=26	=26	=26	=26
!	!	!	!	!LO:DY:a
4F/	2.BB-\]	2.b-/]	4d\	>
4G-X/	.	.	8c\L	.
.	.	.	8e-\J	.
4F/)	.	.	4d\)	]
=27	=27	=27	=27	=27
!	!	!LO:TX:a:t=Più lento.	!	!
!	!	!	!	!LO:DY:b=2
2.r	4F\	2.rdd	2.rg	pp
.	4D\	.	.	.
.	4BB-\	.	.	.
=28	=28	=28	=28	=28
!	!	!	!	!LO:DY:a
!	!	!	!	!LO:HP:b=2
(2.A/	2.FF\	(2g/	([2.e-\	pp >
.	.	4f/	.	.
=29	=29	=29	=29	=29
*	*^	*	*	*
!LO:TX:b:i:t=rit.	!	!	!	!	!
4c/	[2.BB-\	[<2.F/	[>2.f/	4e-\]	.
4B-/	.	.	.	4d\	.
4A/	.	.	.	4c\	.
*	*v	*v	*	*	*
=30	=30	=30	=30	=30
2.B-/)	2.BB-;\] 2.F]	2.f;/])	2.d\)	]
*v	*v	*	*	*
*	*v	*v	*
==	==	==
*-	*-	*-
!!!system-decoration: {(s1,s2)}
!!!RDF**kern: > = above
!!!RDF**kern: < = below
!!!ENC: Kamil Watkowski
!!!END: 2021-08-09
